packages/ckeditor5-icons/theme/icons/ai-grammar-check.svg

<svg viewBox="0 0 20 20" xmlns="http://www.w3.org/2000/svg">
<path d="M17.4133 12.0371L10.4873 19L7.06555 15.5537L8.11906 14.4961L10.4883 16.8818L16.3617 10.9805L17.4133 12.0371Z"/>
<path fill-rule="evenodd" clip-rule="evenodd" d="M12.9759 12.4648L11.9719 13.4736L11.2349 11.4795H5.37798L3.98851 14.9707H2.49902L7.46268 3H9.05121L12.9759 12.4648ZM5.87513 10.2822H10.6397L8.25694 4.49609L5.87513 10.2822Z"/>
<path d="M16.9579 1.86914C17.1605 2.41986 17.592 2.85481 18.1396 3.05859L19.999 3.75L18.1396 4.44141C17.592 4.64519 17.1605 5.08014 16.9579 5.63086L16.2705 7.5L15.582 5.63086C15.3794 5.08014 14.9479 4.64519 14.4003 4.44141L12.5419 3.75L14.4003 3.05859C14.9479 2.85481 15.3794 2.41986 15.582 1.86914L16.2705 0L16.9579 1.86914Z"/>
</svg>

<svg xmlns="http://www.w3.org/2000/svg" viewBox="0 0 20 20"><path d="M17.413 12.037 10.487 19l-3.421-3.446 1.053-1.058 2.37 2.386 5.873-5.902z"/><path fill-rule="evenodd" d="m12.976 12.465-1.004 1.009-.737-1.995H5.378l-1.39 3.492H2.5L7.463 3H9.05zm-7.1-2.183h4.764L8.257 4.496z" clip-rule="evenodd"/><path d="M16.958 1.87c.203.55.634.985 1.182 1.189l1.859.691-1.86.691a2.01 2.01 0 0 0-1.181 1.19L16.27 7.5l-.689-1.87A2 2 0 0 0 14.4 4.442l-1.858-.691L14.4 3.06c.548-.204.98-.64 1.182-1.19L16.27 0z"/></svg>
